X: 2229
T: BLEWITT'S JIG or BARNEY BRALLAGHAN
Q: "Irish Jig."
R: Slip-Jig.
%R: slip-jig
B: James Kerr "Merry Melodies" v.2 p.26 #229
Z: 2016 John Chambers <jc:trillian.mit.edu>
M: 9/8
L: 1/8
K: D
|:\
vF2vA ABA ABA | uF2uA ABA (d2f) |\
vF2vA ABA ABA | uB2uB Bcd ecA ::\
vf2va uf2ua f3 | uf2ua vf2va gfe |
vf2a f2a f2d | ue2e efd cBA ::\
vf2z e2z d2z | ug2uf ve2vd cBA |\
f2z "^2nd"a2x d2z & x2x "_1st"e2z x2x | BcB A2G FED :|
